spotify-features-website/src/assets/icons/library.svg

<svg width="50" height="50" xmlns="http://www.w3.org/2000/svg">

 <g>
  <title>background</title>
  <rect fill="none" id="canvas_background" height="402" width="582" y="-1" x="-1"/>
 </g>
 <g>
  <title>Layer 1</title>
  <path fill="#ffffff" transform="rotate(-90 25.000000000000004,25) " id="svg_1" d="m0,9l0,2l50,0l0,-2l-50,0zm0,15l0,2l50,0l0,-2l-50,0zm0,15l0,2l50,0l0,-2l-50,0z"/>
 </g>
</svg>

<?xml version="1.0" encoding="UTF-8" standalone="yes"?>
<svg xmlns="http://www.w3.org/2000/svg" viewBox="0 0 50 50" width="50" height="50" fill="#ffffff">
  <path d="M 0 9 L 0 11 L 50 11 L 50 9 Z M 0 24 L 0 26 L 50 26 L 50 24 Z M 0 39 L 0 41 L 50 41 L 50 39 Z"/>
</svg>
